X: 020893
T: Blue Idol
S: "First Collection of Traditional Irish Music" (M.Mulvihill)
Z: B.Black
L: 1/8
M: 6/8
R: jig
K: Edor
dc|: BEE cEE|def edB|AFD A,CE|D3 AGA|
BEE cEE|def edB|1 BAB dAF|EFE EFA :|2\
B/c/dB AGF|BAF E3 ||
efe Bdg|bge gfe|dcd Adf|afd edB|
|1 e/f/ge Bdg|bge gfe|B/c/dB AGF|BAF E3 :|
|2 gfg aga|bag e/f/gf|edc B/c/dB|AGF E3||
